docs/images/customers/customers-atlassian.svg

<svg width="117" height="25" viewBox="0 0 117 25" fill="none" xmlns="http://www.w3.org/2000/svg">
<path fill-rule="evenodd" clip-rule="evenodd" d="M81.923 15.7478C80.229 15.3233 80.229 15.3057 80.229 14.4036C80.229 13.796 80.2909 13.506 81.6862 13.506C82.6443 13.506 84.0542 13.6652 84.9613 13.819C85.0852 13.8367 85.2127 13.8102 85.3147 13.7306C85.4167 13.6599 85.4823 13.5449 85.4969 13.4211L85.7555 11.4003C85.7738 11.1704 85.628 10.9581 85.3912 10.9051C84.3347 10.6698 82.8775 10.516 81.6753 10.516C77.4675 10.516 76.6114 12.0547 76.6114 14.3665C76.6114 16.9072 77.0941 17.7624 80.3128 18.523C82.4331 19.0182 82.4331 19.3852 82.4331 19.9954C82.4331 20.7967 82.3602 21.0744 80.9758 21.0744C79.8574 21.0744 78.5641 20.9063 77.4275 20.6109C77.3 20.5809 77.1724 20.6003 77.0632 20.664C76.9539 20.733 76.8755 20.8409 76.8519 20.9647L76.5039 22.8935C76.4621 23.1146 76.595 23.3312 76.8136 23.4002C78.0559 23.7893 79.8374 24.0546 81.1452 24.0546C85.2145 24.0546 86.0452 22.392 86.0452 19.9158C86.0452 17.1743 85.5461 16.6614 81.9176 15.7293L81.923 15.747V15.7478ZM71.3708 15.7478C69.6768 15.3233 69.6768 15.3057 69.6768 14.4036C69.6768 13.796 69.7387 13.506 71.134 13.506C72.0904 13.506 73.502 13.6652 74.4092 13.819C74.533 13.8367 74.6605 13.8102 74.7626 13.7306C74.8646 13.6599 74.9301 13.5449 74.9447 13.4211L75.2034 11.4003C75.2325 11.1704 75.0795 10.9581 74.8482 10.9051C73.8099 10.6698 72.3527 10.516 71.1504 10.516C66.9536 10.516 66.0866 12.0547 66.0866 14.3665C66.0866 16.9072 66.5784 17.7624 69.7952 18.523C71.9155 19.0182 71.9155 19.3852 71.9155 19.9954C71.9155 20.7967 71.8426 21.0744 70.4583 21.0744C69.338 21.0744 68.0447 20.9063 66.9063 20.6109C66.7787 20.5809 66.6512 20.6003 66.5419 20.664C66.4327 20.733 66.3543 20.8409 66.3307 20.9647L65.9663 22.8838C65.9299 23.1048 66.0574 23.3224 66.2815 23.3914C67.5201 23.7805 69.3016 24.0458 70.6113 24.0458C74.6733 24.0458 75.5112 22.3832 75.5112 19.907C75.5112 17.1655 75.0048 16.6525 71.3763 15.7204L71.3708 15.7381V15.7478ZM34.0202 6.45673C33.9601 6.26924 33.7834 6.1419 33.5794 6.1419H29.2651C29.0647 6.1419 28.8826 6.26836 28.8225 6.45408L23.3788 23.203C23.3369 23.3357 23.3606 23.486 23.448 23.601C23.5354 23.7159 23.6739 23.784 23.8214 23.784H26.7905C26.9964 23.784 27.1767 23.6514 27.235 23.4657L30.9846 11.1377C30.9846 11.1377 31.0848 10.8281 31.4218 10.8281C31.7679 10.8281 31.859 11.1465 31.859 11.1465L33.5985 16.9921H31.267C31.0666 16.9921 30.8844 17.1274 30.8298 17.3193L30.1558 19.6364C30.1194 19.769 30.1558 19.9194 30.2287 20.0255C30.3198 20.1378 30.4655 20.2024 30.6112 20.2024H34.5913L35.6386 23.4683C35.6969 23.654 35.8755 23.7814 36.0758 23.7814H39.0449C39.1906 23.7814 39.3327 23.7106 39.4202 23.5957C39.5112 23.4789 39.5367 23.3304 39.493 23.1942L34.0439 6.42666L34.0257 6.45496L34.0202 6.45673ZM90.7611 10.7848H88.0288C87.7738 10.7848 87.568 10.9855 87.568 11.2332V23.3666C87.568 23.6142 87.7756 23.8194 88.0306 23.8194H90.7629C91.018 23.8194 91.2247 23.6187 91.2247 23.3684V11.2376C91.2247 10.99 91.0243 10.7928 90.7693 10.7928L90.7602 10.7857L90.7611 10.7848ZM52.017 5.81468H49.2847C49.0297 5.81468 48.8239 6.01543 48.8239 6.26305V23.3666C48.8239 23.6142 49.0315 23.8194 49.2865 23.8194H52.0188C52.2738 23.8194 52.4797 23.6187 52.4797 23.3684V6.26748C52.4797 6.01985 52.2793 5.82264 52.0243 5.82264L52.017 5.81557V5.81468ZM113.439 10.5239C111.996 10.5239 110.024 11.0085 108.357 11.7691L108.157 11.1147C108.102 10.9201 107.92 10.7919 107.715 10.7919H105.693C105.438 10.7919 105.229 10.9926 105.229 11.2402V23.3737C105.229 23.6213 105.429 23.8247 105.684 23.8247H108.416C108.671 23.8247 108.881 23.6248 108.881 23.3737V14.9722C109.865 14.4859 111.249 13.9818 112.071 13.9818C112.687 13.9818 112.915 14.2064 112.915 14.8042V23.3648C112.915 23.616 113.124 23.8159 113.379 23.8159H116.111C116.366 23.8159 116.572 23.616 116.572 23.3648V14.4567C116.572 11.8522 115.516 10.5301 113.437 10.5301H113.436L113.439 10.5239ZM10.1672 17.7377C10.0943 17.6669 9.99048 17.5917 9.81197 17.5917C9.58428 17.5917 9.45131 17.7438 9.4003 17.8181C8.12523 19.7107 7.46947 21.4971 7.3784 23.2923C7.37567 23.425 7.42667 23.5576 7.51957 23.6549C7.61064 23.761 7.74726 23.8141 7.88387 23.8141H10.9113C11.1754 23.8141 11.394 23.6195 11.4122 23.3719C11.4851 22.5052 11.7583 21.6386 12.2683 20.7365C12.4414 20.4182 12.3047 20.1263 12.2046 19.9998C11.7036 19.3631 11.0907 18.691 10.1799 17.766L10.1763 17.7483L10.1672 17.7377ZM60.8761 19.0288V20.5915C60.4298 20.8391 59.6101 21.1752 58.6174 21.1752C57.7703 21.1752 57.5062 20.9275 57.5062 20.0962C57.5062 19.3003 57.6702 19.0492 58.672 19.0492H60.8761V19.0297V19.0288ZM99.693 19.0288V20.5915C99.2376 20.8391 98.418 21.1752 97.4343 21.1752C96.5873 21.1752 96.3232 20.9275 96.3232 20.0962C96.3232 19.3003 96.4871 19.0492 97.489 19.0492H99.693V19.0297V19.0288ZM46.9686 21.2265C46.9504 21.0991 46.8775 20.9877 46.7682 20.9169C46.659 20.8462 46.5296 20.825 46.4021 20.855C45.9103 20.9718 45.4549 21.0354 45.0906 21.0354C44.4166 21.0354 44.107 20.7524 44.107 20.1157V13.6864H46.7573C47.0123 13.6864 47.22 13.483 47.22 13.2354V11.2279C47.22 10.9802 47.0105 10.7768 46.7555 10.7768H44.1143V7.6913C44.1143 7.55864 44.0523 7.43749 43.9503 7.35082C43.8501 7.26504 43.7135 7.22701 43.586 7.2447L40.8537 7.61613C40.6242 7.64531 40.453 7.83456 40.453 8.05831V10.7821H38.962C38.707 10.7821 38.4994 10.9829 38.4994 11.2305V13.2469C38.4994 13.4945 38.718 13.6997 38.973 13.6997H40.4594V20.5358C40.4594 22.8855 41.729 24.0732 44.2354 24.0732C44.9458 24.0732 46.1589 23.914 46.9495 23.6487C47.159 23.578 47.2883 23.3719 47.2537 23.1535L46.9577 21.2344L46.9668 21.2212L46.9686 21.2265ZM59.0445 10.5301C57.6601 10.5301 55.977 10.7423 54.7548 11.0696C54.518 11.1315 54.3723 11.3481 54.4087 11.5736L54.7238 13.5016C54.742 13.6192 54.8149 13.7253 54.9151 13.7961C55.0171 13.8668 55.1446 13.8845 55.2685 13.8668C56.4033 13.6546 57.5763 13.5307 58.5691 13.5307C60.5363 13.5307 60.8533 13.9375 60.8533 15.2287V16.3607H57.9388C55.1446 16.3607 53.9497 17.475 53.9497 20.1104C53.9497 22.622 55.2612 24.0546 57.5381 24.0546C58.8623 24.0546 60.1848 23.7009 61.2959 23.0465L61.4143 23.4586C61.469 23.6532 61.6511 23.7858 61.8606 23.7858H64.0792C64.3343 23.7858 64.5401 23.5824 64.5401 23.3348V15.2694C64.5401 11.8027 63.0555 10.5115 59.0573 10.5115L59.0409 10.5204L59.0445 10.5301ZM97.8551 10.5301C96.4707 10.5301 94.7949 10.7423 93.5745 11.0696C93.3468 11.1315 93.2011 11.3481 93.2421 11.5736L93.5608 13.5016C93.579 13.6192 93.6519 13.7253 93.7521 13.7961C93.8559 13.8668 93.9834 13.8845 94.1073 13.8668C95.2366 13.6546 96.4024 13.5307 97.4043 13.5307C99.3715 13.5307 99.6812 13.9375 99.6812 15.2287V16.3607H96.7667C93.9616 16.3607 92.7666 17.475 92.7666 20.1104C92.7666 22.622 94.0754 24.0546 96.3551 24.0546C97.6784 24.0546 98.9963 23.7009 100.107 23.0465L100.226 23.4586C100.28 23.6532 100.463 23.7858 100.672 23.7858H102.876C103.131 23.7858 103.341 23.5824 103.341 23.3348V15.2694C103.341 11.8027 101.856 10.5115 97.8578 10.5115L97.8624 10.5204L97.8551 10.5301ZM22.4498 5.89604C22.3587 5.82972 22.254 5.79611 22.1465 5.79611C22.0737 5.79611 22.019 5.80672 21.9644 5.82795C20.8714 6.22945 19.7785 6.53544 18.7767 6.76006C18.5763 6.81313 18.3978 6.95462 18.3395 7.1315C17.6109 9.07709 15.7347 10.9343 13.7857 12.8622C13.7128 12.9329 13.6035 13.039 13.4214 13.039C13.2392 13.039 13.1299 12.9506 13.057 12.8745C11.0898 10.9378 9.23181 9.09832 8.5032 7.15272C8.43034 6.97585 8.2664 6.83435 8.06603 6.78129C7.06418 6.55136 5.95304 6.24183 4.87834 5.84387C4.82369 5.82618 4.75447 5.81733 4.69618 5.81733C4.58689 5.81733 4.48124 5.85271 4.39199 5.91727C4.25355 6.01455 4.18251 6.18258 4.1989 6.34176C4.36284 7.95661 5.0277 9.53431 6.2117 11.1881C7.33195 12.7445 8.78007 14.1861 10.1918 15.578C12.7783 18.1427 15.2283 20.5658 15.4451 23.3781C15.4633 23.6293 15.6819 23.8256 15.9405 23.8256H18.9825C19.1191 23.8256 19.2521 23.7725 19.3468 23.6753C19.4415 23.578 19.4925 23.4489 19.4834 23.3162C19.3869 21.4387 18.6583 19.5577 17.2557 17.5652C16.9642 17.1496 16.6546 16.7427 16.324 16.3448C16.191 16.1856 16.2475 15.9822 16.3495 15.8831L16.6591 15.5789C18.0681 14.1905 19.5189 12.749 20.6392 11.1925C21.8232 9.54315 22.4789 7.97341 22.6474 6.35945C22.6657 6.19584 22.5892 6.02339 22.4544 5.92346L22.4635 5.91019L22.4498 5.89604ZM13.4332 7.3464C14.3868 7.3464 14.9405 7.28714 15.1336 7.28714C15.3522 7.28714 15.589 7.46402 15.589 7.72933C15.589 7.80007 15.5708 7.85314 15.5525 7.9062C15.425 8.23164 14.8421 9.41315 13.7674 10.4266C13.6399 10.5398 13.5124 10.5611 13.4214 10.5611C13.3303 10.5611 13.1846 10.5398 13.0625 10.4266C11.9878 9.41315 11.4122 8.23341 11.2865 7.90266C11.2683 7.8496 11.2501 7.79654 11.2501 7.71694C11.2501 7.46048 11.4741 7.26592 11.7091 7.26592C11.904 7.26592 12.4559 7.31898 13.4104 7.31898H13.4141L13.4323 7.33667L13.4332 7.3464ZM90.7593 5.8191H88.0343C87.7793 5.8191 87.5716 6.01366 87.5716 6.26128V8.596C87.5716 8.84362 87.7793 9.04526 88.0343 9.04526H90.7666C91.0216 9.04526 91.2283 8.8507 91.2283 8.60308V6.24979C91.2283 6.00217 91.0216 5.80318 90.7666 5.80318L90.7593 5.82441V5.8191ZM26.7395 0.24939C26.6184 0.0902049 26.4299 0.00176872 26.2295 0.00176872C26.1266 0.00176872 26.0246 0.0229934 25.938 0.0725177C22.2039 2.05349 17.8805 3.10234 13.4286 3.10411C8.97862 3.10411 4.65429 2.05349 0.923777 0.070749C0.8327 0.0176872 0.732516 3.26815e-09 0.632331 3.26815e-09C0.431962 3.26815e-09 0.2407 0.0884362 0.1223 0.247621C-0.0543889 0.459868 -0.0598536 0.848988 0.2407 1.07892C2.10778 2.42315 4.16794 3.48439 6.36107 4.20956C8.63799 4.95243 11.0133 5.34155 13.4286 5.34155C15.8458 5.34155 18.2229 4.95243 20.4962 4.20956C22.6912 3.48439 24.7513 2.42315 26.622 1.07892C26.9226 0.848988 26.9135 0.459868 26.7404 0.229934V0.24939H26.7395Z" fill="#5982E7"/>
</svg>

<svg width="117" height="25" fill="none" xmlns="http://www.w3.org/2000/svg"><path fill-rule="evenodd" clip-rule="evenodd" d="M81.923 15.748c-1.694-.425-1.694-.442-1.694-1.344 0-.608.062-.898 1.457-.898.958 0 2.368.16 3.275.313a.462.462 0 0 0 .354-.088.44.44 0 0 0 .182-.31l.258-2.02a.464.464 0 0 0-.364-.496c-1.056-.235-2.514-.389-3.716-.389-4.207 0-5.064 1.539-5.064 3.85 0 2.541.483 3.396 3.702 4.157 2.12.495 2.12.862 2.12 1.472 0 .802-.073 1.08-1.457 1.08-1.119 0-2.412-.169-3.549-.464a.462.462 0 0 0-.576.354l-.347 1.928a.446.446 0 0 0 .31.507c1.242.39 3.023.655 4.331.655 4.07 0 4.9-1.663 4.9-4.14 0-2.74-.499-3.254-4.127-4.186l.005.018Zm-10.552 0c-1.694-.425-1.694-.442-1.694-1.344 0-.608.062-.898 1.457-.898.956 0 2.368.16 3.275.313a.463.463 0 0 0 .354-.088.44.44 0 0 0 .182-.31l.258-2.02a.452.452 0 0 0-.355-.496c-1.038-.235-2.495-.389-3.698-.389-4.196 0-5.063 1.539-5.063 3.85 0 2.541.491 3.396 3.708 4.157 2.12.495 2.12.862 2.12 1.472 0 .802-.072 1.08-1.457 1.08-1.12 0-2.413-.169-3.552-.464a.462.462 0 0 0-.576.354l-.364 1.919a.451.451 0 0 0 .316.507c1.238.39 3.02.655 4.33.655 4.061 0 4.9-1.663 4.9-4.139 0-2.741-.507-3.255-4.136-4.187l-.005.018v.01ZM34.02 6.457a.458.458 0 0 0-.442-.315h-4.314c-.2 0-.382.126-.442.312l-5.444 16.749a.442.442 0 0 0 .069.398.469.469 0 0 0 .373.183h2.97a.465.465 0 0 0 .444-.318l3.75-12.328s.1-.31.437-.31c.346 0 .437.319.437.319l1.74 5.845h-2.332c-.2 0-.383.135-.437.327l-.674 2.317a.486.486 0 0 0 .073.39.498.498 0 0 0 .382.176h3.98l1.048 3.266a.456.456 0 0 0 .437.313h2.969c.146 0 .288-.07.375-.185a.434.434 0 0 0 .073-.402l-5.45-16.767-.017.028-.006.002Zm56.74 4.328h-2.73c-.255 0-.461.2-.461.448v12.134a.46.46 0 0 0 .463.452h2.732c.255 0 .462-.2.462-.45V11.237c0-.248-.2-.445-.456-.445l-.009-.007.001-.001Zm-38.744-4.97h-2.732c-.255 0-.461.2-.461.448v17.104a.46.46 0 0 0 .462.452h2.733c.255 0 .46-.2.46-.45V6.266c0-.247-.2-.444-.455-.444l-.007-.007v-.001Zm61.422 4.709c-1.443 0-3.415.485-5.082 1.245l-.2-.654a.453.453 0 0 0-.442-.323h-2.022c-.255 0-.464.2-.464.448v12.134c0 .247.2.45.455.45h2.732c.255 0 .465-.2.465-.45v-8.402c.984-.486 2.368-.99 3.19-.99.616 0 .844.224.844.822v8.56c0 .252.209.452.464.452h2.732c.255 0 .461-.2.461-.451v-8.908c0-2.605-1.056-3.927-3.135-3.927h-.001l.003-.006ZM10.167 17.738a.477.477 0 0 0-.355-.146.502.502 0 0 0-.412.226c-1.275 1.893-1.93 3.68-2.022 5.474a.514.514 0 0 0 .142.363c.09.106.227.16.364.16h3.027a.492.492 0 0 0 .501-.443c.073-.867.346-1.733.856-2.636a.67.67 0 0 0-.063-.736c-.501-.637-1.114-1.309-2.025-2.234l-.004-.018-.009-.01Zm50.71 1.29v1.564a4.784 4.784 0 0 1-2.26.583c-.847 0-1.11-.248-1.11-1.079 0-.796.163-1.047 1.165-1.047h2.204v-.02Zm38.816 0v1.564a4.849 4.849 0 0 1-2.259.583c-.847 0-1.11-.248-1.11-1.079 0-.796.163-1.047 1.165-1.047h2.204v-.02Zm-52.724 2.199a.443.443 0 0 0-.2-.31.468.468 0 0 0-.367-.062 5.92 5.92 0 0 1-1.311.18c-.674 0-.984-.283-.984-.92v-6.429h2.65a.458.458 0 0 0 .463-.45v-2.008a.46.46 0 0 0-.465-.451h-2.64V7.69a.469.469 0 0 0-.528-.447l-2.733.372a.452.452 0 0 0-.401.442v2.724h-1.491c-.255 0-.463.2-.463.448v2.017a.47.47 0 0 0 .474.453h1.486v6.836c0 2.35 1.27 3.537 3.776 3.537.71 0 1.924-.159 2.715-.424a.448.448 0 0 0 .304-.495l-.296-1.92.009-.013.002.006ZM59.044 10.53c-1.384 0-3.067.212-4.29.54a.451.451 0 0 0-.345.504l.315 1.928a.454.454 0 0 0 .191.294c.102.07.23.088.354.07 1.134-.211 2.307-.335 3.3-.335 1.967 0 2.284.406 2.284 1.698v1.132H57.94c-2.794 0-3.99 1.114-3.99 3.75 0 2.511 1.312 3.944 3.59 3.944a7.47 7.47 0 0 0 3.757-1.008l.118.412a.457.457 0 0 0 .447.327h2.218a.457.457 0 0 0 .461-.451v-8.066c0-3.466-1.485-4.758-5.483-4.758l-.016.01.004.01Zm38.811 0c-1.384 0-3.06.212-4.28.54a.445.445 0 0 0-.333.504l.319 1.928a.454.454 0 0 0 .191.294.5.5 0 0 0 .355.07c1.13-.211 2.295-.335 3.297-.335 1.968 0 2.277.406 2.277 1.698v1.132h-2.914c-2.805 0-4 1.114-4 3.75 0 2.511 1.308 3.944 3.588 3.944a7.45 7.45 0 0 0 3.752-1.008l.119.412a.457.457 0 0 0 .446.327h2.204a.46.46 0 0 0 .465-.451v-8.066c0-3.466-1.485-4.758-5.483-4.758l.004.01-.007.01ZM22.45 5.896a.512.512 0 0 0-.486-.068 25.505 25.505 0 0 1-3.187.932c-.2.053-.38.195-.438.372-.728 1.945-2.604 3.802-4.553 5.73-.073.07-.182.177-.365.177a.48.48 0 0 1-.364-.165c-1.967-1.936-3.825-3.776-4.554-5.721a.653.653 0 0 0-.437-.372 26.172 26.172 0 0 1-3.188-.937.63.63 0 0 0-.182-.027.518.518 0 0 0-.304.1.466.466 0 0 0-.193.425c.164 1.615.829 3.192 2.013 4.846 1.12 1.556 2.568 2.998 3.98 4.39 2.586 2.565 5.036 4.988 5.253 7.8a.493.493 0 0 0 .495.448h3.043c.136 0 .27-.053.364-.15a.47.47 0 0 0 .136-.36c-.096-1.877-.825-3.758-2.227-5.75a18.798 18.798 0 0 0-.932-1.221.343.343 0 0 1 .025-.462l.31-.304c1.41-1.389 2.86-2.83 3.98-4.386 1.184-1.65 1.84-3.22 2.008-4.834a.488.488 0 0 0-.193-.436l.01-.013-.014-.014Zm-9.017 1.45c.954 0 1.508-.059 1.7-.059.22 0 .456.177.456.442a.492.492 0 0 1-.037.177c-.127.326-.71 1.507-1.785 2.52a.504.504 0 0 1-.346.135.524.524 0 0 1-.358-.134c-1.075-1.014-1.65-2.194-1.777-2.524a.525.525 0 0 1-.036-.186c0-.257.224-.451.46-.451.194 0 .746.053 1.7.053h.004l.018.018.001.01ZM90.76 5.82h-2.725a.45.45 0 0 0-.462.442v2.335c0 .248.207.45.462.45h2.733a.45.45 0 0 0 .461-.443V6.25a.454.454 0 0 0-.461-.447l-.008.021V5.82ZM26.74.25a.636.636 0 0 0-.51-.247.587.587 0 0 0-.291.07c-3.734 1.981-8.057 3.03-12.51 3.032-4.45 0-8.774-1.05-12.504-3.033A.568.568 0 0 0 .632 0c-.2 0-.391.088-.51.248a.586.586 0 0 0 .119.83A22.648 22.648 0 0 0 6.36 4.21a22.748 22.748 0 0 0 7.068 1.132c2.417 0 4.794-.39 7.067-1.132a22.705 22.705 0 0 0 6.126-3.131.61.61 0 0 0 .118-.85v.02Z" fill="#5982E7"/></svg>
